X: 11271
Q: "With spirit."
M: 2/4	% Actually, no time signature is shown.
L: 1/8
K: F
|:\
c2f>e | d>cB>A | G>AB>c | AGFz |\
c2f>e | d>cB>A | G>BE>G | F2[fF]z :|


